X:889
T:Reel 889
M:4/4
K:Dmaj
L:1/8
AG|F>D (3DCD FDAG|F>D (3DCD FAdA|F>D (3DCD FADF|GECE A,ECE|2FEDF GBAG|FGFE D2AG|FAdc d2dA|FAdA BGE2|FAcA dAFA|GFED CEEG|FAdA d2dA|FAdc d2AG|FDEC DFAd|BGEF GABG|
